img/redes/youtube.svg

<svg width="24" height="24" viewBox="0 0 24 24" fill="none" xmlns="http://www.w3.org/2000/svg">
<path d="M23.8225 8.70395C23.8225 8.69895 23.823 8.69645 23.8225 8.69195C23.7045 7.14445 23.4785 6.40895 23.4785 6.40895L23.475 6.41495C23.46 6.35795 23.447 6.29945 23.4295 6.24395C23.4285 6.24245 23.4265 6.23294 23.4265 6.23294H23.4255C23.0455 5.08794 22.0455 4.22945 20.8235 4.04945C20.8235 4.04845 20.8235 4.04745 20.8235 4.04595C12.3055 3.20795 3.50502 4.01944 3.50502 4.01944L3.50452 4.02945C2.22402 4.12395 1.15102 4.95395 0.714522 6.10595L0.711522 6.10495C0.711522 6.10495 0.702022 6.13345 0.688522 6.17595C0.636522 6.32345 0.593022 6.47495 0.562522 6.63195C0.259522 7.83345 -0.349978 11.0764 0.344522 15.8824L0.341522 15.8814L0.523522 17.0259C0.536022 17.1544 0.556522 17.2794 0.583522 17.4029L0.593022 17.4614L0.596022 17.4564C0.607522 17.5064 0.617023 17.5569 0.630522 17.6064C0.632023 17.6129 0.632522 17.6189 0.634022 17.6259H0.635522C1.01652 18.9194 2.18202 19.8669 3.58102 19.9374V19.9444C3.58102 19.9444 10.499 20.8204 20.514 19.9444C20.5145 19.9434 20.515 19.9414 20.5155 19.9404C20.9735 19.9159 21.406 19.7994 21.793 19.6039C21.8045 19.5984 21.815 19.5969 21.827 19.5914C22.8145 19.1189 23.2335 18.2599 23.376 17.8864C23.3845 17.8659 23.3925 17.8394 23.401 17.8154C23.424 17.7489 23.4385 17.7009 23.4385 17.7009L23.4355 17.7014C23.441 17.6789 23.448 17.6639 23.454 17.6384C23.466 17.5844 23.4765 17.5299 23.488 17.4764C23.514 17.3684 23.538 17.2604 23.5535 17.1494C23.8125 15.7694 23.8555 14.5439 23.8555 14.5439L23.852 14.5444C24.0595 12.1539 23.973 10.1449 23.8225 8.70395ZM9.69252 15.6404V8.47994L15.9365 12.0604L9.69252 15.6404Z" fill="white"/>
</svg>

<svg width="24" height="24" fill="none" xmlns="http://www.w3.org/2000/svg"><path d="M23.823 8.704v-.012c-.119-1.548-.345-2.283-.345-2.283l-.003.006c-.015-.057-.028-.116-.046-.171a.075.075 0 0 1-.002-.011h-.002a3.244 3.244 0 0 0-2.602-2.184v-.003c-8.518-.838-17.318-.027-17.318-.027v.01a3.235 3.235 0 0 0-2.79 2.077l-.003-.001-.023.07a3.213 3.213 0 0 0-.126.457C.26 7.833-.35 11.076.345 15.882H.342l.182 1.144c.012.128.033.253.06.377l.009.058.003-.005c.012.05.021.1.035.15l.003.02h.002a3.236 3.236 0 0 0 2.945 2.311v.007s6.918.876 16.933 0l.002-.004c.458-.024.89-.14 1.277-.336.012-.006.022-.007.034-.013.987-.472 1.406-1.331 1.549-1.705l.025-.07.038-.115h-.003c.005-.022.012-.037.018-.063l.034-.162c.026-.108.05-.216.066-.327.259-1.38.302-2.605.302-2.605h-.004c.207-2.39.121-4.4-.03-5.84ZM9.693 15.64V8.48l6.244 3.58-6.244 3.58Z" fill="#fff"/></svg>
